components/AppDevelopmentCommon/Svg/svgs/treeStructure.svg

<svg width="59" height="59" viewBox="0 0 59 59" fill="none" xmlns="http://www.w3.org/2000/svg">
<path d="M33.75 18.6248V11.3748C33.75 10.574 33.1008 9.9248 32.3 9.9248H25.05C24.2492 9.9248 23.6 10.574 23.6 11.3748V18.6248C23.6 19.4256 24.2492 20.0748 25.05 20.0748H32.3C33.1008 20.0748 33.75 19.4256 33.75 18.6248Z" stroke="#161616" stroke-width="2" stroke-linecap="round" stroke-linejoin="round"/>
<path d="M34.4727 44.7252V36.0252C34.4727 35.2244 33.8235 34.5752 33.0227 34.5752H24.3227C23.5218 34.5752 22.8727 35.2244 22.8727 36.0252V44.7252C22.8727 45.526 23.5218 46.1752 24.3227 46.1752H33.0227C33.8235 46.1752 34.4727 45.526 34.4727 44.7252Z" stroke="#161616" stroke-width="2" stroke-linecap="round" stroke-linejoin="round"/>
<path d="M51.875 44.7252V36.0252C51.875 35.2244 51.2258 34.5752 50.425 34.5752H41.725C40.9242 34.5752 40.275 35.2244 40.275 36.0252V44.7252C40.275 45.526 40.9242 46.1752 41.725 46.1752H50.425C51.2258 46.1752 51.875 45.526 51.875 44.7252Z" stroke="#161616" stroke-width="2" stroke-linecap="round" stroke-linejoin="round"/>
<path d="M17.0742 44.7252V36.0252C17.0742 35.2244 16.425 34.5752 15.6242 34.5752H6.92422C6.12341 34.5752 5.47422 35.2244 5.47422 36.0252V44.7252C5.47422 45.526 6.12341 46.1752 6.92422 46.1752H15.6242C16.425 46.1752 17.0742 45.526 17.0742 44.7252Z" stroke="#161616" stroke-width="2" stroke-linecap="round" stroke-linejoin="round"/>
<path d="M28.6719 20.0752V27.3252" stroke="#161616" stroke-width="2" stroke-linecap="round" stroke-linejoin="round"/>
<path d="M28.6719 26.6001V33.8501" stroke="#161616" stroke-width="2" stroke-linecap="round" stroke-linejoin="round"/>
<path d="M11.2742 34.5752V31.6752C11.2742 30.5215 11.7325 29.4151 12.5483 28.5993C13.3641 27.7835 14.4705 27.3252 15.6242 27.3252L41.7242 27.3252C42.8779 27.3252 43.9844 27.7835 44.8001 28.5993C45.6159 29.4151 46.0742 30.5215 46.0742 31.6752V34.5752" stroke="#161616" stroke-width="2" stroke-linecap="round" stroke-linejoin="round"/>
</svg>

<svg xmlns="http://www.w3.org/2000/svg" width="59" height="59" fill="none">
  <path stroke="#161616" stroke-linecap="round" stroke-linejoin="round" stroke-width="2" d="M33.75 18.625v-7.25c0-.801-.65-1.45-1.45-1.45h-7.25c-.8 0-1.45.649-1.45 1.45v7.25c0 .8.65 1.45 1.45 1.45h7.25c.8 0 1.45-.65 1.45-1.45ZM34.473 44.725v-8.7c0-.8-.65-1.45-1.45-1.45h-8.7c-.801 0-1.45.65-1.45 1.45v8.7c0 .801.649 1.45 1.45 1.45h8.7c.8 0 1.45-.649 1.45-1.45ZM51.875 44.725v-8.7c0-.8-.65-1.45-1.45-1.45h-8.7c-.8 0-1.45.65-1.45 1.45v8.7c0 .801.65 1.45 1.45 1.45h8.7c.8 0 1.45-.649 1.45-1.45ZM17.074 44.725v-8.7c0-.8-.649-1.45-1.45-1.45h-8.7c-.8 0-1.45.65-1.45 1.45v8.7c0 .801.65 1.45 1.45 1.45h8.7c.801 0 1.45-.649 1.45-1.45ZM28.672 20.075v7.25M28.672 26.6v7.25" />
  <path stroke="#161616" stroke-linecap="round" stroke-linejoin="round" stroke-width="2" d="M11.274 34.575v-2.9a4.35 4.35 0 0 1 4.35-4.35h26.1a4.35 4.35 0 0 1 4.35 4.35v2.9" />
</svg>
